assets/offering/inbrott-grey.svg

<svg width="48" height="48" viewBox="0 0 48 48" fill="none" xmlns="http://www.w3.org/2000/svg">
<g opacity="0.3">
<mask id="mask0" mask-type="alpha" maskUnits="userSpaceOnUse" x="0" y="0" width="48" height="48">
<path fill-rule="evenodd" clip-rule="evenodd" d="M0 0H47.9999V47.9998H0V0Z" fill="white"/>
</mask>
<g mask="url(#mask0)">
<path fill-rule="evenodd" clip-rule="evenodd" d="M48 24C48 37.255 37.255 48 24 48C10.745 48 0 37.255 0 24C0 10.745 10.745 0 24 0C37.255 0 48 10.745 48 24Z" fill="#FF8A80"/>
</g>
<path fill-rule="evenodd" clip-rule="evenodd" d="M30.6858 21.4244H29.6858V16.7104C29.6858 13.5744 27.1348 11.0244 23.9998 11.0244H23.4998V10.0244H23.9998C27.6868 10.0244 30.6858 13.0234 30.6858 16.7104V21.4244Z" fill="white"/>
<mask id="mask1" mask-type="alpha" maskUnits="userSpaceOnUse" x="0" y="0" width="48" height="48">
<path fill-rule="evenodd" clip-rule="evenodd" d="M0 48H48V0H0V48Z" fill="white"/>
</mask>
<g mask="url(#mask1)">
<path fill-rule="evenodd" clip-rule="evenodd" d="M17.3149 21.424H18.3149V16.21H17.3149V21.424Z" fill="white"/>
<path fill-rule="evenodd" clip-rule="evenodd" d="M33.3399 36.419H14.6599V35.419H32.3399V20.46H33.3399V36.419Z" fill="white"/>
<path fill-rule="evenodd" clip-rule="evenodd" d="M15.6604 36.419H14.6604V20.46H33.3404V21.46H15.6604V36.419Z" fill="white"/>
<path fill-rule="evenodd" clip-rule="evenodd" d="M32.3401 36.419H33.3401V20.46H32.3401V36.419Z" fill="white"/>
<path fill-rule="evenodd" clip-rule="evenodd" d="M23.5 32.5965H24.5V29.8145H23.5V32.5965Z" fill="white"/>
<path fill-rule="evenodd" clip-rule="evenodd" d="M24.0001 25.1748C22.9121 25.1748 22.0271 26.0598 22.0271 27.1478C22.0271 28.2358 22.9121 29.1208 24.0001 29.1208C25.0881 29.1208 25.9731 28.2358 25.9731 27.1478C25.9731 26.0598 25.0881 25.1748 24.0001 25.1748ZM24.0001 30.1208C22.3611 30.1208 21.0271 28.7868 21.0271 27.1478C21.0271 25.5078 22.3611 24.1748 24.0001 24.1748C25.6391 24.1748 26.9731 25.5078 26.9731 27.1478C26.9731 28.7868 25.6391 30.1208 24.0001 30.1208Z" fill="white"/>
<path fill-rule="evenodd" clip-rule="evenodd" d="M17.3595 11.287L15.9575 10.156L16.5855 9.37695L17.9875 10.509L17.3595 11.287Z" fill="white"/>
</g>
</g>
</svg>

<svg width="48" height="48" viewBox="0 0 48 48" fill="none" xmlns="http://www.w3.org/2000/svg"><g opacity=".3"><mask id="a" maskUnits="userSpaceOnUse" x="0" y="0" width="48" height="48"><path fill-rule="evenodd" clip-rule="evenodd" d="M0 0h48v48H0V0z" fill="#fff"/></mask><g mask="url(#a)"><path fill-rule="evenodd" clip-rule="evenodd" d="M48 24c0 13.255-10.745 24-24 24S0 37.255 0 24 10.745 0 24 0s24 10.745 24 24z" fill="#FF8A80"/></g><path fill-rule="evenodd" clip-rule="evenodd" d="M30.686 21.424h-1V16.71A5.692 5.692 0 0024 11.024h-.5v-1h.5a6.693 6.693 0 016.686 6.686v4.714z" fill="#fff"/><mask id="b" maskUnits="userSpaceOnUse" x="0" y="0" width="48" height="48"><path fill-rule="evenodd" clip-rule="evenodd" d="M0 48h48V0H0v48z" fill="#fff"/></mask><g mask="url(#b)" fill-rule="evenodd" clip-rule="evenodd" fill="#fff"><path d="M17.315 21.424h1V16.21h-1v5.214zM33.34 36.419H14.66v-1h17.68V20.46h1v15.959z"/><path d="M15.66 36.419h-1V20.46h18.68v1H15.66v14.959z"/><path d="M32.34 36.419h1V20.46h-1v15.959zM23.5 32.596h1v-2.781h-1v2.781z"/><path d="M24 25.175a1.975 1.975 0 00-1.973 1.973c0 1.088.885 1.973 1.973 1.973a1.975 1.975 0 001.973-1.973A1.975 1.975 0 0024 25.175zm0 4.946a2.977 2.977 0 01-2.973-2.973A2.976 2.976 0 0124 24.175a2.976 2.976 0 012.973 2.973A2.977 2.977 0 0124 30.12zM17.36 11.287l-1.402-1.131.627-.779 1.402 1.132-.627.778z"/></g></g></svg>
